atlases.vromfs.bin_u/gameuiskin/hide_tree.svg

<svg width="128" height="128" viewBox="0 0 128 128" fill="none" xmlns="http://www.w3.org/2000/svg">
<path fill-rule="evenodd" clip-rule="evenodd" d="M102.9 86.4701C94.977 100.54 66.622 115.229 65.039 116.041H64.959C63.376 115.229 35.021 100.541 27.098 86.4701C18.946 71.9951 14.981 15.4081 14.981 15.4081C15.941 14.2581 17.89 12.0291 17.89 12.0291H112.112C112.112 12.0291 114.06 14.2591 115.02 15.4081C115.02 15.4081 111.054 71.9951 102.9 86.4701ZM101 24.0001H29C29 24.0001 25.863 25.3911 25.994 26.9001C27.777 47.3621 31.132 73.8601 35.263 81.2001C40.296 90.1381 58.229 100.884 63.605 103.964C64.0297 104.207 64.5106 104.335 65 104.335C65.4894 104.335 65.9703 104.207 66.395 103.964C71.771 100.875 89.7 90.1301 94.737 81.1931C98.868 73.8561 102.287 47.3581 104.07 26.8931C104.2 25.3911 101 24.0001 101 24.0001ZM65 71.0001H39V51.0001H65V35.5311L90 61.0001L65 86.9141V71.0001Z" fill="white"/>
</svg>

<svg id="guns_sights" data-name="guns sights" xmlns="http://www.w3.org/2000/svg" width="128" height="128" viewBox="0 0 128 128">
  <metadata><?xpacket begin="﻿" id="W5M0MpCehiHzreSzNTczkc9d"?>
<x:xmpmeta xmlns:x="adobe:ns:meta/" x:xmptk="Adobe XMP Core 5.6-c138 79.159824, 2016/09/14-01:09:01        ">
   <rdf:RDF xmlns:rdf="http://www.w3.org/1999/02/22-rdf-syntax-ns#">
      <rdf:Description rdf:about=""/>
   </rdf:RDF>
</x:xmpmeta>
                                                                                                    
                                                                                                    
                                                                                                    
                                                                                                    
                                                                                                    
                                                                                                    
                                                                                                    
                                                                                                    
                                                                                                    
                                                                                                    
                                                                                                    
                                                                                                    
                                                                                                    
                                                                                                    
                                                                                                    
                                                                                                    
                                                                                                    
                                                                                                    
                                                                                                    
                                                                                                    
                           
<?xpacket end="w"?></metadata>
<defs>
    <style>
      .cls-1 {
        fill: #e0e0e0;
        fill-rule: evenodd;
      }
    </style>
  </defs>
  <path id="Shape_26_copy_2" data-name="Shape 26 copy 2" class="cls-1" d="M102.9,86.47c-7.923,14.07-36.278,28.759-37.861,29.571H64.959c-1.583-.812-29.938-15.5-37.861-29.571C18.946,71.995,14.981,15.408,14.981,15.408c0.96-1.15,2.909-3.379,2.909-3.379h94.222s1.948,2.23,2.908,3.379C115.019,15.408,111.054,71.995,102.9,86.47ZM101,24H29s-3.137,1.391-3.006,2.9c1.783,20.462,5.138,46.96,9.269,54.3,5.033,8.938,22.966,19.684,28.342,22.764a2.807,2.807,0,0,0,2.79,0C71.771,100.875,89.7,90.13,94.737,81.193c4.131-7.337,7.55-33.835,9.333-54.3C104.2,25.391,101,24,101,24ZM65,71H39V51H65V35.531L90,61,65,86.914V71Z"/>
</svg>
